packages/icons/src/save-cache-gcs-ci-step-inverse.svg

<svg fill="none" viewBox="0 0 40 40" xmlns="http://www.w3.org/2000/svg"><g clip-rule="evenodd" fill-rule="evenodd"><path d="m36.7378 27.2088 3.0821 5.3602c.118.2073.1801.4418.1801.6803 0 .2386-.0621.473-.1801.6803l-3.0821 5.3602c-.1148.2083-.2818.3833-.4845.5078-.2028.1245-.4344.1942-.6721.2024h-6.1653c-.2378-.0093-.4691-.0799-.6716-.205-.2024-.125-.3691-.3003-.4839-.5087l-3.082-5.3907c-.1169-.2041-.1784-.4351-.1784-.6703s.0615-.4662.1784-.6703l3.0832-5.3462c.1158-.2056.2834-.3773.486-.4982.2027-.1209.4335-.1867.6695-.1908h6.1652c.236.004.4668.0697.6695.1906.2028.1209.3703.2927.486.4984zm-1.8131 4.4404h-4.8563c-.0378-.001-.0745.013-.1022.0389-.0276.0258-.0439.0615-.0455.0994v1.0078c0 .0376.015.0737.0416.1003.0266.0265.0626.0415.1002.0415h4.8622c.0375-.0003.0734-.0154.0999-.0419s.0416-.0624.0419-.0999v-1.0043c0-.0376-.015-.0737-.0416-.1003-.0265-.0266-.0626-.0415-.1002-.0415zm-.7512.9375c-.0575 0-.1137-.0171-.1615-.049s-.085-.0773-.107-.1304-.0278-.1116-.0165-.1679c.0112-.0564.0389-.1082.0795-.1488.0406-.0407.0924-.0684.1488-.0796s.1148-.0054.1679.0166.0985.0592.1304.107c.032.0478.049.104.049.1615 0 .077-.0306.151-.0851.2055s-.1284.0851-.2055.0851zm.7512.9984h-4.8563c-.0378-.0009-.0745.013-.1022.0389-.0276.0259-.0439.0616-.0455.0994v1.0137c.0018.0366.0175.0711.0438.0966s.0614.0399.098.0405h4.8622c.0375-.0003.0734-.0153.0999-.0419.0265-.0265.0416-.0624.0419-.0999v-1.0102c0-.0376-.015-.0736-.0416-.1002-.0265-.0266-.0626-.0416-.1002-.0416zm-.7512.9328c-.0575 0-.1137-.017-.1615-.0489-.0478-.032-.085-.0774-.107-.1305s-.0278-.1115-.0165-.1679c.0112-.0564.0389-.1081.0795-.1488.0406-.0406.0924-.0683.1488-.0795s.1148-.0055.1679.0165.0985.0593.1304.1071c.032.0478.049.1039.049.1614 0 .0382-.0075.076-.0221.1112-.0146.0353-.036.0673-.063.0943s-.059.0484-.0943.063c-.0352.0146-.073.0221-.1112.0221z" fill="#f6faff"/><path d="m29.9585 32.8916-.001.001.6926.6926h4.2747v-.0047c.0376 0 .0737.0149.1003.0415.0265.0266.0415.0627.0415.1003v1.0101c-.0003.0375-.0154.0734-.0419.1-.0265.0265-.0624.0415-.0999.0418h-4.8622c-.0223-.0003-.044-.0058-.0635-.0158l5.1381 5.1381h.4383c.2378-.0081.4694-.0779.6721-.2023.2028-.1245.3697-.2995.4846-.5078l2.148-3.736-3.8625-3.8684-.002.0002c.0032.0027.0064.0055.0094.0085.0265.0266.0415.0627.0415.1003v1.0043c-.0003.0375-.0154.0734-.0419.0999-.0265.0266-.0624.0416-.0999.0419h-4.8622c-.0376 0-.0736-.0149-.1002-.0415-.0013-.0013-.0026-.0027-.0039-.004zm4.2151-.3049c-.0575 0-.1137-.017-.1615-.049-.0477-.0319-.085-.0773-.107-.1304s-.0277-.1115-.0165-.1679.0389-.1082.0795-.1488c.0407-.0407.0924-.0683.1488-.0796.0564-.0112.1148-.0054.1679.0166s.0985.0592.1305.107c.0319.0478.0489.104.0489.1615 0 .0771-.0306.151-.0851.2055s-.1284.0851-.2055.0851zm0 1.9313c-.0575 0-.1137-.0171-.1615-.049-.0477-.0319-.085-.0773-.107-.1304s-.0277-.1116-.0165-.1679c.0112-.0564.0389-.1082.0795-.1489.0407-.0406.0924-.0683.1488-.0795s.1148-.0055.1679.0165.0985.0593.1305.1071c.0319.0478.0489.104.0489.1614 0 .0382-.0075.076-.0221.1113-.0146.0352-.036.0673-.063.0943-.027.0269-.059.0483-.0943.063-.0352.0146-.073.0221-.1112.0221z" fill="#d7dfed"/><path d="m20.4015 4.45083c-.0946-.12026-.2413-.19084-.397-.19094s-.3025.0703-.3972.19045l-3.1299 3.9703c-.1681.21318-.1266.5185.0926.68195s.5331.12313.7012-.09005l2.2329-2.83245v8.91821c0 .2687.2239.4864.5001.4864s.5001-.2177.5001-.4864v-8.91516l2.2241 2.8289c.1678.21339.4817.2541.7011.09093s.2613-.46844.0935-.68183zm-4.0215 8.60947c.2738-.0353.4664-.2797.4301-.546-.0362-.2663-.2876-.4537-.5614-.4184-2.0232.2605-3.7857.7289-5.0581 1.3482-.6357.3094-1.1718.6674-1.55481 1.0752-.3857.4106-.63579.8947-.63579 1.4358v13.213c0 .6988.41373 1.297 1.0048 1.7768.5938.4821 1.4232.8944 2.4042 1.2312 1.9664.6753 4.6503 1.0838 7.591 1.0838.7003 0 1.3852-.0232 2.0486-.0674.2756-.0184.4837-.2506.4648-.5186-.019-.268-.2577-.4703-.5332-.452-.6404.0428-1.3025.0652-1.9802.0652-2.8582 0-5.4242-.3986-7.258-1.0283-.9192-.3156-1.6275-.6801-2.0963-1.0607-.4716-.3829-.6455-.7332-.6455-1.03v-4.9372l.0046.0036c.5938.4821 1.4232.8945 2.4042 1.2313 1.9664.6752 4.6503 1.0837 7.591 1.0837 2.9408 0 5.6246-.4085 7.591-1.0837.981-.3368 1.8104-.7492 2.4042-1.2313l.0046-.0036v.3259c0 .2686.2239.4864.5001.4864s.5001-.2178.5001-.4864v-8.6017c0-1.0641-.9424-1.8938-2.1421-2.4872-1.2446-.6156-2.9695-1.0843-4.9527-1.3517-.2736-.0369-.5262.1489-.5641.415s.1531.5117.4267.5486c1.9182.2586 3.5249.7053 4.6367 1.2552 1.1566.5721 1.5953 1.1579 1.5953 1.6201 0 .2968-.1739.6471-.6455 1.03-.4688.3806-1.1771.7451-2.0963 1.0608-1.8337.6296-4.3998 1.0282-7.258 1.0282s-5.4242-.3986-7.258-1.0282c-.9192-.3157-1.6275-.6802-2.0963-1.0608-.4716-.3829-.6455-.7332-.6455-1.03 0-.2318.1041-.4923.3741-.7797.2726-.2902.6937-.5838 1.2639-.8613 1.1396-.5547 2.7841-1.0018 4.7418-1.2538zm-6.3798 9.3975v-4.7296l.0046.0037c.5938.4821 1.4232.8944 2.4042 1.2313 1.9664.6752 4.6503 1.0837 7.591 1.0837 2.9408 0 5.6246-.4085 7.591-1.0837.981-.3369 1.8104-.7492 2.4042-1.2313l.0046-.0037v4.7296c0 .2967-.1739.6471-.6455 1.0299-.4688.3806-1.1771.7452-2.0963 1.0608-1.8337.6297-4.3998 1.0283-7.258 1.0283s-5.4242-.3986-7.258-1.0283c-.9192-.3156-1.6275-.6802-2.0963-1.0608-.4716-.3828-.6455-.7332-.6455-1.0299zm2.5183-1.3165c0 .3342-.2786.6052-.6223.6052-.3436 0-.6222-.271-.6222-.6052s.2786-.6052.6222-.6052c.3437 0 .6223.271.6223.6052zm0 6.6869c0 .3343-.2786.6052-.6223.6052-.3436 0-.6222-.2709-.6222-.6052 0-.3342.2786-.6051.6222-.6051.3437 0 .6223.2709.6223.6051z" fill="#fff"/></g></svg>

<svg viewBox="0 0 40 40" fill="none" xmlns="http://www.w3.org/2000/svg">
<path fill-rule="evenodd" clip-rule="evenodd" d="M36.7378 27.2088L39.8199 32.569C39.9379 32.7763 40 33.0108 40 33.2493C40 33.4879 39.9379 33.7223 39.8199 33.9296L36.7378 39.2898C36.623 39.4981 36.456 39.6731 36.2533 39.7976C36.0505 39.9221 35.8189 39.9918 35.5812 40H29.4159C29.1781 39.9907 28.9468 39.9201 28.7443 39.795C28.5419 39.67 28.3752 39.4947 28.2604 39.2863L25.1784 33.8956C25.0615 33.6915 25 33.4605 25 33.2253C25 32.9901 25.0615 32.7591 25.1784 32.555L28.2616 27.2088C28.3774 27.0032 28.545 26.8315 28.7476 26.7106C28.9503 26.5897 29.1811 26.5239 29.4171 26.5198H35.5823C35.8183 26.5238 36.0491 26.5895 36.2518 26.7104C36.4546 26.8313 36.6221 27.0031 36.7378 27.2088ZM34.9247 31.6492H30.0684C30.0306 31.6482 29.9939 31.6622 29.9662 31.6881C29.9386 31.7139 29.9223 31.7496 29.9207 31.7875V32.7953C29.9207 32.8329 29.9357 32.869 29.9623 32.8956C29.9889 32.9221 30.0249 32.9371 30.0625 32.9371H34.9247C34.9622 32.9368 34.9981 32.9217 35.0246 32.8952C35.0511 32.8687 35.0662 32.8328 35.0665 32.7953V31.791C35.0665 31.7534 35.0515 31.7173 35.0249 31.6907C34.9984 31.6641 34.9623 31.6492 34.9247 31.6492ZM34.1735 32.5867C34.116 32.5867 34.0598 32.5696 34.012 32.5377C33.9642 32.5058 33.927 32.4604 33.905 32.4073C33.883 32.3542 33.8772 32.2957 33.8885 32.2394C33.8997 32.183 33.9274 32.1312 33.968 32.0906C34.0086 32.0499 34.0604 32.0222 34.1168 32.011C34.1732 31.9998 34.2316 32.0056 34.2847 32.0276C34.3378 32.0496 34.3832 32.0868 34.4151 32.1346C34.4471 32.1824 34.4641 32.2386 34.4641 32.2961C34.4641 32.3731 34.4335 32.4471 34.379 32.5016C34.3245 32.5561 34.2506 32.5867 34.1735 32.5867ZM34.9247 33.5851H30.0684C30.0306 33.5842 29.9939 33.5981 29.9662 33.624C29.9386 33.6499 29.9223 33.6856 29.9207 33.7234V34.7371C29.9225 34.7737 29.9382 34.8082 29.9645 34.8337C29.9908 34.8592 30.0259 34.8736 30.0625 34.8742H34.9247C34.9622 34.8739 34.9981 34.8589 35.0246 34.8323C35.0511 34.8058 35.0662 34.7699 35.0665 34.7324V33.7222C35.0665 33.6846 35.0515 33.6486 35.0249 33.622C34.9984 33.5954 34.9623 33.5804 34.9247 33.5804V33.5851ZM34.1735 34.5179C34.116 34.5179 34.0598 34.5009 34.012 34.469C33.9642 34.437 33.927 34.3916 33.905 34.3385C33.883 34.2854 33.8772 34.227 33.8885 34.1706C33.8997 34.1142 33.9274 34.0625 33.968 34.0218C34.0086 33.9812 34.0604 33.9535 34.1168 33.9423C34.1732 33.9311 34.2316 33.9368 34.2847 33.9588C34.3378 33.9808 34.3832 34.0181 34.4151 34.0659C34.4471 34.1137 34.4641 34.1698 34.4641 34.2273C34.4641 34.2655 34.4566 34.3033 34.442 34.3385C34.4274 34.3738 34.406 34.4058 34.379 34.4328C34.352 34.4598 34.32 34.4812 34.2847 34.4958C34.2495 34.5104 34.2117 34.5179 34.1735 34.5179Z" fill="#F6FAFF"/>
<path fill-rule="evenodd" clip-rule="evenodd" d="M29.9585 32.8916L29.9575 32.8926L30.6501 33.5852H34.9248V33.5805C34.9624 33.5805 34.9985 33.5954 35.0251 33.622C35.0516 33.6486 35.0666 33.6847 35.0666 33.7223V34.7324C35.0663 34.7699 35.0512 34.8058 35.0247 34.8324C34.9982 34.8589 34.9623 34.8739 34.9248 34.8742H30.0626C30.0403 34.8739 30.0186 34.8684 29.9991 34.8584L35.1372 39.9965H35.5755C35.8133 39.9884 36.0449 39.9186 36.2476 39.7942C36.4504 39.6697 36.6173 39.4947 36.7322 39.2864L38.8802 35.5504L35.0177 31.682L35.0157 31.6822C35.0189 31.6849 35.0221 31.6877 35.0251 31.6907C35.0516 31.7173 35.0666 31.7534 35.0666 31.791V32.7953C35.0663 32.8328 35.0512 32.8687 35.0247 32.8952C34.9982 32.9218 34.9623 32.9368 34.9248 32.9371H30.0626C30.025 32.9371 29.989 32.9222 29.9624 32.8956C29.9611 32.8943 29.9598 32.8929 29.9585 32.8916ZM34.1736 32.5867C34.1161 32.5867 34.0599 32.5697 34.0121 32.5377C33.9644 32.5058 33.9271 32.4604 33.9051 32.4073C33.8831 32.3542 33.8774 32.2958 33.8886 32.2394C33.8998 32.183 33.9275 32.1312 33.9681 32.0906C34.0088 32.0499 34.0605 32.0223 34.1169 32.011C34.1733 31.9998 34.2317 32.0056 34.2848 32.0276C34.3379 32.0496 34.3833 32.0868 34.4153 32.1346C34.4472 32.1824 34.4642 32.2386 34.4642 32.2961C34.4642 32.3732 34.4336 32.4471 34.3791 32.5016C34.3246 32.5561 34.2507 32.5867 34.1736 32.5867ZM34.1736 34.518C34.1161 34.518 34.0599 34.5009 34.0121 34.469C33.9644 34.4371 33.9271 34.3917 33.9051 34.3386C33.8831 34.2855 33.8774 34.227 33.8886 34.1707C33.8998 34.1143 33.9275 34.0625 33.9681 34.0218C34.0088 33.9812 34.0605 33.9535 34.1169 33.9423C34.1733 33.9311 34.2317 33.9368 34.2848 33.9588C34.3379 33.9808 34.3833 34.0181 34.4153 34.0659C34.4472 34.1137 34.4642 34.1699 34.4642 34.2273C34.4642 34.2655 34.4567 34.3033 34.4421 34.3386C34.4275 34.3738 34.4061 34.4059 34.3791 34.4329C34.3521 34.4598 34.3201 34.4812 34.2848 34.4959C34.2496 34.5105 34.2118 34.518 34.1736 34.518Z" fill="#D7DFED"/>
<path fill-rule="evenodd" clip-rule="evenodd" d="M20.4015 4.45083C20.3069 4.33057 20.1602 4.25999 20.0045 4.25989C19.8488 4.25979 19.702 4.33019 19.6073 4.45034L16.4774 8.42064C16.3093 8.63382 16.3508 8.93914 16.57 9.10259C16.7892 9.26604 17.1031 9.22572 17.2712 9.01254L19.5041 6.18009V15.0983C19.5041 15.367 19.728 15.5847 20.0042 15.5847C20.2804 15.5847 20.5043 15.367 20.5043 15.0983V6.18314L22.7284 9.01204C22.8962 9.22543 23.2101 9.26614 23.4295 9.10297C23.6489 8.9398 23.6908 8.63453 23.523 8.42114L20.4015 4.45083ZM16.38 13.0603C16.6538 13.025 16.8464 12.7806 16.8101 12.5143C16.7739 12.248 16.5225 12.0606 16.2487 12.0959C14.2255 12.3564 12.463 12.8248 11.1906 13.4441C10.5549 13.7535 10.0188 14.1115 9.63579 14.5193C9.25009 14.9299 9 15.414 9 15.9551V29.1681C9 29.8669 9.41373 30.4651 10.0048 30.9449C10.5986 31.427 11.428 31.8393 12.409 32.1761C14.3754 32.8514 17.0593 33.2599 20 33.2599C20.7003 33.2599 21.3852 33.2367 22.0486 33.1925C22.3242 33.1741 22.5323 32.9419 22.5134 32.6739C22.4944 32.4059 22.2557 32.2036 21.9802 32.2219C21.3398 32.2647 20.6777 32.2871 20 32.2871C17.1418 32.2871 14.5758 31.8885 12.742 31.2588C11.8228 30.9432 11.1145 30.5787 10.6457 30.1981C10.1741 29.8152 10.0002 29.4649 10.0002 29.1681V24.2309L10.0048 24.2345C10.5986 24.7166 11.428 25.129 12.409 25.4658C14.3754 26.141 17.0593 26.5495 20 26.5495C22.9408 26.5495 25.6246 26.141 27.591 25.4658C28.572 25.129 29.4014 24.7166 29.9952 24.2345L29.9998 24.2309V24.5568C29.9998 24.8254 30.2237 25.0432 30.4999 25.0432C30.7761 25.0432 31 24.8254 31 24.5568V15.9551C31 14.891 30.0576 14.0613 28.8579 13.4679C27.6133 12.8523 25.8884 12.3836 23.9052 12.1162C23.6316 12.0793 23.379 12.2651 23.3411 12.5312C23.3032 12.7973 23.4942 13.0429 23.7678 13.0798C25.686 13.3384 27.2927 13.7851 28.4045 14.335C29.5611 14.9071 29.9998 15.4929 29.9998 15.9551C29.9998 16.2519 29.8259 16.6022 29.3543 16.9851C28.8855 17.3657 28.1772 17.7302 27.258 18.0459C25.4243 18.6755 22.8582 19.0741 20 19.0741C17.1418 19.0741 14.5758 18.6755 12.742 18.0459C11.8228 17.7302 11.1145 17.3657 10.6457 16.9851C10.1741 16.6022 10.0002 16.2519 10.0002 15.9551C10.0002 15.7233 10.1043 15.4628 10.3743 15.1754C10.6469 14.8852 11.068 14.5916 11.6382 14.3141C12.7778 13.7594 14.4223 13.3123 16.38 13.0603ZM10.0002 22.4578V17.7282L10.0048 17.7319C10.5986 18.214 11.428 18.6263 12.409 18.9632C14.3754 19.6384 17.0593 20.0469 20 20.0469C22.9408 20.0469 25.6246 19.6384 27.591 18.9632C28.572 18.6263 29.4014 18.214 29.9952 17.7319L29.9998 17.7282V22.4578C29.9998 22.7545 29.8259 23.1049 29.3543 23.4877C28.8855 23.8683 28.1772 24.2329 27.258 24.5485C25.4243 25.1782 22.8582 25.5768 20 25.5768C17.1418 25.5768 14.5758 25.1782 12.742 24.5485C11.8228 24.2329 11.1145 23.8683 10.6457 23.4877C10.1741 23.1049 10.0002 22.7545 10.0002 22.4578ZM12.5185 21.1413C12.5185 21.4755 12.2399 21.7465 11.8962 21.7465C11.5526 21.7465 11.274 21.4755 11.274 21.1413C11.274 20.8071 11.5526 20.5361 11.8962 20.5361C12.2399 20.5361 12.5185 20.8071 12.5185 21.1413ZM12.5185 27.8282C12.5185 28.1625 12.2399 28.4334 11.8962 28.4334C11.5526 28.4334 11.274 28.1625 11.274 27.8282C11.274 27.494 11.5526 27.2231 11.8962 27.2231C12.2399 27.2231 12.5185 27.494 12.5185 27.8282Z" fill="white"/>
</svg>
